icons/scale.svg

<svg width="24" height="24" viewBox="0 0 24 24" fill="none" xmlns="http://www.w3.org/2000/svg">
<path fill-rule="evenodd" clip-rule="evenodd" d="M12 2C12.5523 2 13 2.44772 13 3V4.27924L18 5.94591L20.6838 5.05132C21.2077 4.87667 21.7741 5.15983 21.9487 5.68377C22.1234 6.20772 21.8402 6.77404 21.3163 6.94868L19.2649 7.63246L21.9487 15.6838C22.0848 16.0921 21.9444 16.5417 21.6 16.8C20.5615 17.5789 19.2982 18 18 18C16.7018 18 15.4386 17.5789 14.4 16.8C14.0557 16.5417 13.9152 16.0921 14.0513 15.6838L16.7351 7.63246L13 6.38743V20H15C15.5523 20 16 20.4477 16 21C16 21.5523 15.5523 22 15 22H9.00003C8.44774 22 8.00003 21.5523 8.00003 21C8.00003 20.4477 8.44774 20 9.00003 20H11V6.38743L7.26494 7.63246L9.94871 15.6838C10.0848 16.0921 9.94437 16.5417 9.60003 16.8C8.56145 17.5789 7.29825 18 6.00003 18C4.70181 18 3.4386 17.5789 2.40003 16.8C2.05568 16.5417 1.91523 16.0921 2.05134 15.6838L4.73512 7.63246L2.6838 6.94868C2.15986 6.77404 1.8767 6.20772 2.05134 5.68377C2.22599 5.15983 2.79231 4.87667 3.31625 5.05132L6.00003 5.94591L11 4.27924V3C11 2.44772 11.4477 2 12 2ZM6.00003 10.1623L4.19722 15.5707C4.75338 15.8515 5.37053 16 6.00003 16C6.62953 16 7.24668 15.8515 7.80284 15.5707L6.00003 10.1623ZM18 10.1623L16.1972 15.5707C16.7534 15.8515 17.3705 16 18 16C18.6295 16 19.2467 15.8515 19.8028 15.5707L18 10.1623Z" fill="black"/>
</svg>

<svg
  width="24"
  height="24"
  viewBox="0 0 24 24"
  xmlns="http://www.w3.org/2000/svg"
>
  <path
    fill-rule="evenodd"
    clip-rule="evenodd"
    d="M12 2a1 1 0 0 1 1 1v1.28l5 1.666 2.684-.895a1 1 0 0 1 .632 1.898l-2.051.683 2.684 8.052A1 1 0 0 1 21.6 16.8a6 6 0 0 1-7.2 0 1 1 0 0 1-.349-1.116l2.684-8.052L13 6.387V20h2a1 1 0 1 1 0 2H9a1 1 0 1 1 0-2h2V6.387L7.265 7.632l2.684 8.052A1 1 0 0 1 9.6 16.8a6 6 0 0 1-7.2 0 1 1 0 0 1-.349-1.116l2.684-8.052-2.051-.683a1 1 0 0 1 .632-1.898L6 5.946l5-1.667V3a1 1 0 0 1 1-1zm-6 8.162l-1.803 5.409a4 4 0 0 0 3.606 0L6 10.162zm12 0l-1.803 5.409a4 4 0 0 0 3.606 0L18 10.162z"
  />
</svg>
